package/converter/svg/duotone/camcorder.svg

<svg xmlns="http://www.w3.org/2000/svg" viewBox="0 0 576 512"><!-- Font Awesome Pro 6.0.0-alpha2 by @fontawesome - https://fontawesome.com License - https://fontawesome.com/license (Commercial License) --><defs><style>.fa-secondary{opacity:.4}</style></defs><path d="M320 160H96V128C96 110.4 110.4 96 128 96H288C305.673 96 320 81.673 320 64V64C320 46.327 305.673 32 288 32H128C74.981 32 32 74.981 32 128V162.875C12.875 169.5 0 187.5 0 207.75V416C0 451.346 28.654 480 64 480H320C355.346 480 384 451.346 384 416V224C384 188.654 355.346 160 320 160ZM304 256H80C71.164 256 64 248.836 64 240C64 231.162 71.164 224 80 224H304C312.838 224 320 231.162 320 240C320 248.836 312.838 256 304 256Z" class="fa-secondary"/><path d="M304 224H80C71.164 224 64 231.162 64 240C64 248.836 71.164 256 80 256H304C312.838 256 320 248.836 320 240C320 231.162 312.838 224 304 224ZM525.625 165.75L416 241.25V398.75L525.625 474.25C546.75 488.75 576 473.875 576 448.375V191.5C576 166.125 546.875 151.125 525.625 165.75Z" class="fa-primary"/></svg>

<svg xmlns="http://www.w3.org/2000/svg" viewBox="0 0 576 512"><!--! Font Awesome Pro 6.6.0 by @fontawesome - https://fontawesome.com License - https://fontawesome.com/license (Commercial License) Copyright 2024 Fonticons, Inc. --><defs><style>.fa-secondary{opacity:.4}</style></defs><path class="fa-secondary" d="M0 224L0 416c0 35.3 28.7 64 64 64l256 0c35.3 0 64-28.7 64-64l0-36.2 0-119.6 0-36.2c0-35.3-28.7-64-64-64L96 160l0-32c0-17.7 14.3-32 32-32l160 0c17.7 0 32-14.3 32-32s-14.3-32-32-32L128 32c-53 0-96 43-96 96l0 40.6C12.9 179.6 0 200.3 0 224zm64 16c0-8.8 7.2-16 16-16l224 0c8.8 0 16 7.2 16 16s-7.2 16-16 16L80 256c-8.8 0-16-7.2-16-16z"/><path class="fa-primary" d="M559.1 163.8c10.4 5.6 16.9 16.4 16.9 28.2l0 256c0 11.8-6.5 22.6-16.9 28.2s-23 5-32.9-1.6L384 379.8l0-119.6 142.2-94.8c9.8-6.5 22.4-7.2 32.9-1.6zM80 224l224 0c8.8 0 16 7.2 16 16s-7.2 16-16 16L80 256c-8.8 0-16-7.2-16-16s7.2-16 16-16z"/></svg>
